src/amo/components/Icon/img/heart.svg

<?xml version="1.0" encoding="UTF-8"?>
<svg width="24px" height="22px" viewBox="0 0 24 22" version="1.1" xmlns="http://www.w3.org/2000/svg" xmlns:xlink="http://www.w3.org/1999/xlink">
    <!-- Generator: Sketch 47.1 (45422) - http://www.bohemiancoding.com/sketch -->
    <title>Shape</title>
    <desc>Created with Sketch.</desc>
    <defs>
        <path d="M21.95,2.051 C20.627,0.729 18.87,0 17,0 C15.13,0 13.373,0.729 12.051,2.05 C12.034,2.067 12.017,2.084 12,2.102 C11.983,2.084 11.967,2.068 11.95,2.051 C10.627,0.729 8.87,0 7,0 C5.13,0 3.373,0.729 2.05,2.051 C0.727,3.373 0,5.13 0,7 C0,8.87 0.728,10.627 2.05,11.949 L12,21.899 L21.95,11.949 C23.272,10.627 24,8.87 24,7 C24,5.131 23.272,3.373 21.95,2.051 Z" id="path-1"></path>
    </defs>
    <g id="Symbols" stroke="none" stroke-width="1" fill="none" fill-rule="evenodd">
        <g id="Icon/Heart/Off" fill-rule="nonzero">
            <g id="Shape">
                <use fill="#FFFFFF" fill-rule="evenodd" xlink:href="#path-1"></use>
                <path stroke="#FFFFFF" stroke-width="4" d="M13.4506893,3.47878038 L12,5.01480433 L10.5459737,3.47524707 C10.553298,3.48281084 10.553298,3.48281084 10.5363212,3.46574814 C9.5875032,2.51764729 8.33863256,2 7,2 C5.66136744,2 4.4124968,2.51764729 3.46367879,3.46574814 C2.51672085,4.41199031 2,5.65978649 2,7 C2,8.33935708 2.51713785,9.58771073 3.46421356,10.5347864 L12,19.0705729 L20.5357864,10.5347864 C21.4828621,9.58771073 22,8.33935708 22,7 C22,5.66123602 21.4825744,4.41200154 20.5357864,3.46521356 L20.5363212,3.46574814 C19.5875032,2.51764729 18.3386326,2 17,2 C15.6614989,2 14.4125897,2.51755423 13.5074,3.4207294 L13.4652136,3.46421356 C13.4548429,3.4745901 13.4542429,3.47519037 13.4506893,3.47878038 Z"></path>
            </g>
        </g>
    </g>
</svg>

<svg width="24" height="22" xmlns="http://www.w3.org/2000/svg" xmlns:xlink="http://www.w3.org/1999/xlink"><defs><path d="M21.95 2.051A6.957 6.957 0 0 0 17 0c-1.87 0-3.627.729-4.949 2.05L12 2.102A6.957 6.957 0 0 0 7 0C5.13 0 3.373.729 2.05 2.051A6.948 6.948 0 0 0 0 7c0 1.87.728 3.627 2.05 4.949l9.95 9.95 9.95-9.95A6.952 6.952 0 0 0 24 7a6.954 6.954 0 0 0-2.05-4.949Z" id="a"/></defs><g fill-rule="nonzero" fill="none"><use fill="#FFF" fill-rule="evenodd" xlink:href="#a"/><path stroke="#FFF" stroke-width="4" d="M13.45 3.479 12 5.015l-1.454-1.54A4.957 4.957 0 0 0 7 2a4.957 4.957 0 0 0-3.536 1.466A4.948 4.948 0 0 0 2 7c0 1.34.517 2.588 1.464 3.535L12 19.07l8.536-8.536A4.952 4.952 0 0 0 22 7a4.954 4.954 0 0 0-1.464-3.535A4.957 4.957 0 0 0 17 2a4.926 4.926 0 0 0-3.493 1.42l-.042.044-.014.015Z"/></g></svg>
